X: 1114
T: Felix The Wrestler
B: max new tunes
B: steve tunes
M:6/8
Q: 3/8=100
K:Am
V:1 
|:e|"Am"c2A AcA|ecA AB=c|"G"B2=G =GB=G|dB=G Bcd|
 "Am"c2A AcA|ecA ABc|"G"ded Bcd|"Am"ecA A2:|
 |:d|"Am"c2a a^ga|efe edc|"G"B2=g =gf=g|ded dcB|
 "Am"c2a a=ga|efe edc|"G"ded Bcd|"Am"ecA A2:|
% abcbook-tune_id 62b5b3ccbe915546b30a95a0


% abcbook-boost 12
% abcbook-tablature 
% abcbook-transpose 
% abcbook-lastupdated 1658312298146
% abcbook-soundfonts 
% abcbook-repeats 3


